static/img/footer/instagram.svg

<svg width="24" height="24" viewBox="0 0 24 24" fill="none" xmlns="http://www.w3.org/2000/svg">
<g clip-path="url(#clip0_1142_1897)">
<path d="M12.0036 0.181641C7.06883 0.181641 5.6256 0.186732 5.34507 0.210004C4.33237 0.294186 3.70221 0.453641 3.01568 0.795459C2.48661 1.05819 2.06935 1.36273 1.65754 1.78964C0.907565 2.56819 0.453033 3.52601 0.288492 4.66455C0.208495 5.21728 0.185223 5.33001 0.180496 8.15328C0.178677 9.09437 0.180496 10.3329 0.180496 11.9942C0.180496 16.9251 0.18595 18.3669 0.209586 18.6469C0.291401 19.6324 0.445942 20.2524 0.773205 20.9306C1.39864 22.2287 2.59315 23.2033 4.00038 23.5669C4.48764 23.6924 5.0258 23.7615 5.71669 23.7942C6.00941 23.8069 8.99296 23.816 11.9783 23.816C14.9637 23.816 17.949 23.8124 18.2345 23.7978C19.0345 23.7602 19.499 23.6978 20.0126 23.5651C21.4289 23.1996 22.6016 22.2396 23.2398 20.9233C23.5607 20.2615 23.7234 19.6178 23.7971 18.6838C23.8131 18.4802 23.8198 15.2335 23.8198 11.9911C23.8198 8.74819 23.8125 5.50746 23.7965 5.30382C23.722 4.35473 23.5592 3.71655 23.228 3.04201C22.9562 2.48982 22.6544 2.07746 22.2162 1.65582C21.4342 0.908914 20.4779 0.454368 19.3383 0.290004C18.7861 0.210186 18.6761 0.18655 15.8507 0.181641H12.0036Z" fill="url(#paint0_radial_1142_1897)"/>
<path d="M12.0036 0.181641C7.06883 0.181641 5.6256 0.186732 5.34507 0.210004C4.33237 0.294186 3.70221 0.453641 3.01568 0.795459C2.48661 1.05819 2.06935 1.36273 1.65754 1.78964C0.907565 2.56819 0.453033 3.52601 0.288492 4.66455C0.208495 5.21728 0.185223 5.33001 0.180496 8.15328C0.178677 9.09437 0.180496 10.3329 0.180496 11.9942C0.180496 16.9251 0.18595 18.3669 0.209586 18.6469C0.291401 19.6324 0.445942 20.2524 0.773205 20.9306C1.39864 22.2287 2.59315 23.2033 4.00038 23.5669C4.48764 23.6924 5.0258 23.7615 5.71669 23.7942C6.00941 23.8069 8.99296 23.816 11.9783 23.816C14.9637 23.816 17.949 23.8124 18.2345 23.7978C19.0345 23.7602 19.499 23.6978 20.0126 23.5651C21.4289 23.1996 22.6016 22.2396 23.2398 20.9233C23.5607 20.2615 23.7234 19.6178 23.7971 18.6838C23.8131 18.4802 23.8198 15.2335 23.8198 11.9911C23.8198 8.74819 23.8125 5.50746 23.7965 5.30382C23.722 4.35473 23.5592 3.71655 23.228 3.04201C22.9562 2.48982 22.6544 2.07746 22.2162 1.65582C21.4342 0.908914 20.4779 0.454368 19.3383 0.290004C18.7861 0.210186 18.6761 0.18655 15.8507 0.181641H12.0036Z" fill="url(#paint1_radial_1142_1897)"/>
<path d="M12.0012 3.27344C9.63106 3.27344 9.33362 3.2838 8.40274 3.32616C7.47367 3.36871 6.83951 3.5158 6.28462 3.73162C5.71064 3.95453 5.22374 4.25271 4.73867 4.73798C4.25323 5.22307 3.95505 5.70998 3.73142 6.2838C3.51507 6.83889 3.3678 7.47326 3.32598 8.40198C3.28435 9.33289 3.27344 9.63053 3.27344 12.0007C3.27344 14.3709 3.28398 14.6674 3.32616 15.5983C3.36889 16.5274 3.51598 17.1616 3.73161 17.7165C3.95469 18.2905 4.25286 18.7774 4.73812 19.2625C5.22301 19.748 5.70991 20.0469 6.28353 20.2698C6.83878 20.4856 7.47313 20.6327 8.40201 20.6753C9.33289 20.7176 9.63015 20.728 12.0001 20.728C14.3704 20.728 14.6669 20.7176 15.5978 20.6753C16.5269 20.6327 17.1617 20.4856 17.717 20.2698C18.2908 20.0469 18.777 19.748 19.2619 19.2625C19.7473 18.7774 20.0455 18.2905 20.2691 17.7167C20.4836 17.1616 20.6309 16.5273 20.6745 15.5985C20.7164 14.6676 20.7273 14.3709 20.7273 12.0007C20.7273 9.63053 20.7164 9.33307 20.6745 8.40216C20.6309 7.47307 20.4836 6.83889 20.2691 6.28398C20.0455 5.70998 19.7473 5.22307 19.2619 4.73798C18.7764 4.25253 18.291 3.95435 17.7165 3.73162C17.1601 3.5158 16.5256 3.36871 15.5965 3.32616C14.6656 3.2838 14.3693 3.27344 11.9984 3.27344H12.0012ZM11.2183 4.84616C11.4506 4.8458 11.7099 4.84616 12.0012 4.84616C14.3313 4.84616 14.6075 4.85453 15.5276 4.89635C16.3785 4.93526 16.8403 5.07744 17.1479 5.19689C17.5552 5.35507 17.8455 5.54416 18.1508 5.84962C18.4563 6.15507 18.6453 6.44598 18.8039 6.85325C18.9233 7.16053 19.0657 7.62235 19.1044 8.47325C19.1462 9.39325 19.1553 9.66962 19.1553 11.9987C19.1553 14.3278 19.1462 14.6042 19.1044 15.5242C19.0655 16.3751 18.9233 16.8369 18.8039 17.1442C18.6457 17.5514 18.4563 17.8414 18.1508 18.1467C17.8454 18.4522 17.5554 18.6413 17.1479 18.7994C16.8407 18.9194 16.3785 19.0613 15.5276 19.1002C14.6076 19.142 14.3313 19.1511 12.0012 19.1511C9.67088 19.1511 9.39471 19.142 8.47474 19.1002C7.62385 19.0609 7.16205 18.9187 6.85424 18.7993C6.44698 18.6411 6.15608 18.452 5.85063 18.1465C5.54519 17.8411 5.3561 17.5509 5.19756 17.1434C5.07811 16.8362 4.93575 16.3743 4.89702 15.5234C4.85521 14.6034 4.84684 14.3271 4.84684 11.9965C4.84684 9.66598 4.85521 9.39107 4.89702 8.47107C4.93593 7.62016 5.07811 7.15835 5.19756 6.85071C5.35574 6.44344 5.54519 6.15253 5.85063 5.84707C6.15608 5.54162 6.44698 5.35253 6.85424 5.19398C7.16187 5.07398 7.62385 4.93216 8.47474 4.89307C9.2798 4.85671 9.59179 4.8458 11.2183 4.84398V4.84616ZM16.6596 6.29525C16.0814 6.29525 15.6123 6.7638 15.6123 7.34216C15.6123 7.92035 16.0814 8.38944 16.6596 8.38944C17.2377 8.38944 17.7068 7.92035 17.7068 7.34216C17.7068 6.76398 17.2377 6.29489 16.6596 6.29489V6.29525ZM12.0012 7.51889C9.52616 7.51889 7.51949 9.52562 7.51949 12.0007C7.51949 14.4758 9.52616 16.4816 12.0012 16.4816C14.4762 16.4816 16.4821 14.4758 16.4821 12.0007C16.4821 9.52562 14.4762 7.51889 12.0012 7.51889ZM12.0012 9.09162C13.6077 9.09162 14.9102 10.394 14.9102 12.0007C14.9102 13.6073 13.6077 14.9098 12.0012 14.9098C10.3945 14.9098 9.09217 13.6073 9.09217 12.0007C9.09217 10.394 10.3945 9.09162 12.0012 9.09162Z" fill="white"/>
</g>
<defs>
<radialGradient id="paint0_radial_1142_1897" cx="0" cy="0" r="1" gradientUnits="userSpaceOnUse" gradientTransform="translate(6.45912 25.6364) rotate(-90) scale(23.4234 21.7909)">
<stop stop-color="#FFDD55"/>
<stop offset="0.1" stop-color="#FFDD55"/>
<stop offset="0.5" stop-color="#FF543E"/>
<stop offset="1" stop-color="#C837AB"/>
</radialGradient>
<radialGradient id="paint1_radial_1142_1897" cx="0" cy="0" r="1" gradientUnits="userSpaceOnUse" gradientTransform="translate(-3.78015 1.88422) rotate(78.678) scale(10.4705 43.1693)">
<stop stop-color="#3771C8"/>
<stop offset="0.128" stop-color="#3771C8"/>
<stop offset="1" stop-color="#6600FF" stop-opacity="0"/>
</radialGradient>
<clipPath id="clip0_1142_1897">
<rect width="24" height="24" fill="white"/>
</clipPath>
</defs>
</svg>

<svg xmlns="http://www.w3.org/2000/svg" width="24" height="24" fill="none" viewBox="0 0 24 24"><g clip-path="url(#a)"><path fill="url(#b)" d="M12.004.182c-4.935 0-6.378.005-6.659.028-1.013.084-1.643.244-2.33.585-.528.263-.946.568-1.357.995Q.534 2.957.288 4.665c-.08.552-.103.665-.108 3.488v3.841c0 4.931.006 6.373.03 6.653.081.985.236 1.605.563 2.284A4.98 4.98 0 0 0 4 23.567c.488.125 1.026.195 1.717.227.292.013 3.276.022 6.261.022s5.971-.004 6.257-.018c.8-.038 1.264-.1 1.778-.233a4.95 4.95 0 0 0 3.227-2.642c.32-.661.483-1.305.557-2.24.016-.203.023-3.45.023-6.692s-.008-6.484-.023-6.687c-.075-.95-.238-1.587-.569-2.262a4.7 4.7 0 0 0-1.012-1.386C21.434.909 20.478.454 19.338.29c-.552-.08-.662-.103-3.487-.108z"/><path fill="url(#c)" d="M12.004.182c-4.935 0-6.378.005-6.659.028-1.013.084-1.643.244-2.33.585-.528.263-.946.568-1.357.995Q.534 2.957.288 4.665c-.08.552-.103.665-.108 3.488v3.841c0 4.931.006 6.373.03 6.653.081.985.236 1.605.563 2.284A4.98 4.98 0 0 0 4 23.567c.488.125 1.026.195 1.717.227.292.013 3.276.022 6.261.022s5.971-.004 6.257-.018c.8-.038 1.264-.1 1.778-.233a4.95 4.95 0 0 0 3.227-2.642c.32-.661.483-1.305.557-2.24.016-.203.023-3.45.023-6.692s-.008-6.484-.023-6.687c-.075-.95-.238-1.587-.569-2.262a4.7 4.7 0 0 0-1.012-1.386C21.434.909 20.478.454 19.338.29c-.552-.08-.662-.103-3.487-.108z"/><path fill="#fff" d="M12.001 3.273c-2.37 0-2.667.01-3.598.053-.93.043-1.563.19-2.118.406a4.3 4.3 0 0 0-1.546 1.006A4.3 4.3 0 0 0 3.73 6.284c-.216.555-.363 1.19-.405 2.118-.042.93-.053 1.229-.053 3.599s.011 2.666.053 3.597c.043.93.19 1.564.406 2.118.223.575.52 1.061 1.006 1.546.485.486.972.785 1.546 1.008.555.216 1.19.363 2.118.405.93.043 1.228.053 3.598.053s2.667-.01 3.598-.053c.929-.042 1.564-.19 2.119-.405a4.3 4.3 0 0 0 1.545-1.008 4.3 4.3 0 0 0 1.007-1.545c.215-.555.362-1.19.406-2.118.041-.931.052-1.228.052-3.598s-.01-2.668-.053-3.599c-.043-.929-.19-1.563-.405-2.118a4.3 4.3 0 0 0-1.007-1.546 4.3 4.3 0 0 0-1.546-1.006c-.556-.216-1.19-.363-2.12-.406-.93-.042-1.227-.053-3.598-.053zm-.783 1.573h.783c2.33 0 2.607.009 3.527.05.85.04 1.312.181 1.62.3.407.16.698.348 1.003.654.305.305.494.596.653 1.003.12.308.262.77.3 1.62.042.92.051 1.197.051 3.526s-.009 2.605-.05 3.525c-.04.851-.182 1.313-.301 1.62a2.7 2.7 0 0 1-.653 1.003 2.7 2.7 0 0 1-1.003.652c-.307.12-.77.262-1.62.301-.92.042-1.197.051-3.527.051s-2.606-.009-3.526-.05c-.851-.04-1.313-.182-1.62-.302a2.7 2.7 0 0 1-1.004-.652 2.7 2.7 0 0 1-.653-1.004c-.12-.307-.262-.769-.301-1.62-.042-.92-.05-1.196-.05-3.527 0-2.33.008-2.605.05-3.525.039-.85.181-1.313.3-1.62.159-.408.348-.698.654-1.004a2.7 2.7 0 0 1 1.003-.653c.308-.12.77-.262 1.62-.3.806-.037 1.118-.048 2.744-.05zm5.442 1.45a1.047 1.047 0 1 0 0 2.094 1.047 1.047 0 0 0 0-2.095M12 7.518a4.482 4.482 0 1 0 0 8.964 4.482 4.482 0 0 0 0-8.964m0 1.573a2.91 2.91 0 1 1 0 5.818 2.91 2.91 0 0 1 0-5.818"/></g><defs><radialGradient id="b" cx="0" cy="0" r="1" gradientTransform="matrix(0 -23.4234 21.7909 0 6.46 25.636)" gradientUnits="userSpaceOnUse"><stop stop-color="#fd5"/><stop offset=".1" stop-color="#fd5"/><stop offset=".5" stop-color="#ff543e"/><stop offset="1" stop-color="#c837ab"/></radialGradient><radialGradient id="c" cx="0" cy="0" r="1" gradientTransform="rotate(78.678 -3.04 -1.364)scale(10.4705 43.1693)" gradientUnits="userSpaceOnUse"><stop stop-color="#3771c8"/><stop offset=".128" stop-color="#3771c8"/><stop offset="1" stop-color="#60f" stop-opacity="0"/></radialGradient><clipPath id="a"><path fill="#fff" d="M0 0h24v24H0z"/></clipPath></defs></svg>
